X: 493
T: Wei pengyou
L: 1/8
M: 2/4
K: Eb
F F/ G/ c B/ c/ [I:setbarnb 1]| 
e e e f | 
c3A | 
F2F G | 
F4 | 
F F/ G/ c B/ c/ | 
e e e f | 
c3A | 
F2F G | 
B4 |]

@@@ Tune index: 9367
